X:4911
T:Paddy Carey's
O:england
M:6/8
L:1/8
R:Jig
A:Lancashire.
H:1860.
H:Wm.Tildesley,Swinton,Lancs.1860s. / Chris Wood & Andy Cuttin
K:G
D2 G GFG|B2G GFG|E2A AGA|cBA GFE|D2 G GFG|B2G GFG|
E2D E2F|GAB A2G::B2G c2G|d2e dBG|B2G c2G|dBG AGA|
B2G c2G|d2e dBG|GFE BAG|1FEF GAc:|2FEF GAB|
:c2A AGA|B2G GFG|F2G A2B|c2A FED|c2A AGA|B2G GFG|E2DE2F|GAB A2G:||


